!!!COM: Schiørring, Niels
!!!CDT: 1743-1798
!!!OPR@@DA: Choral-Bog
!!!ONM: 59
!!!OTL@@DA: Kom, o kom! du Aand, ſom giver
**kern	**fb	**kern	**kern	**kern	**kern	**kern	**kern	**kern
*part6	*part6	*part6	*part5	*part5	*part4	*part3	*part2	*part1
*staff8	*	*staff7	*staff6	*staff5	*staff4	*staff3	*staff2	*staff1
*clefF4	*	*clefC1	*clefF4	*clefC1	*clefF4	*clefC4	*clefC3	*clefC1
*mclefF4	*	*mclefG2	*mclefF4	*mclefG2	*mclefF4	*mclefGv2	*mclefG2	*mclefG2
*k[f#]	*	*k[f#]	*k[f#]	*k[f#]	*k[f#]	*k[f#]	*k[f#]	*k[f#]
*G:	*	*G:	*G:	*G:	*G:	*G:	*G:	*G:
*M4/4	*	*M4/4	*M4/4	*M4/4	*M4/4	*M4/4	*M4/4	*M4/4
*met(c)	*	*met(c)	*met(c)	*met(c)	*met(c)	*met(c)	*met(c)	*met(c)
*MM180	*	*MM180	*MM180	*MM180	*MM180	*MM180	*MM180	*MM180
*	*above	*	*	*	*	*	*	*
*	*slash	*	*	*	*	*	*	*
=1	=1	=1	=1	=1	=1	=1	=1	=1
*	*	*	*^	*^	*	*	*	*
2GG	.	2b	2d>	2GG	2b	2g	2GG	2d	2g	2b
2G	7 4 2	(4a	4c>	2G	4a	4f#	2G	(4c	(4f#	(4a
.	8 3	4g)	4B>	.	4g	4g	.	4B)	4g)	4g)
=2	=2	=2	=2	=2	=2	=2	=2	=2	=2	=2
2F#	6	2a	2A	2F#	2a	2d	2F#	2A	2d	2a
2D	.	2dd	2F#	2D	2dd	2a	2D	2F#	2a	2dd
=3	=3	=3	=3	=3	=3	=3	=3	=3	=3	=3
2E	.	2g	2B	2E	2g	2e	2E	2B	2e	2g
2AA	8 #	4a	2c#X>	2AA	4a	2e	2AA	2c#X	2e	(4a
.	7	4g	.	.	4g	.	.	.	.	4g)
=4	=4	=4	=4	=4	=4	=4	=4	=4	=4	=4
1D	.	2f#	2A	2D	2f#	2d	2D	2A	2d	2f#
.	.	2d	2F#	2D	2d	2A	2D	2F#	2A	2d
=5	=5	=5	=5	=5	=5	=5	=5	=5	=5	=5
4D	#4|	2e	4G#X	4D	2e	4B	(4D	(4G#X	(4B	2e
2C	6	.	2.A	2C	.	4c	2C)	4A)	4c)	.
.	4 2	2f#	.	.	2f#	2d	.	2A	2d	2f#
4C	.	.	.	4C	.	.	4C	.	.	.
=6	=6	=6	=6	=6	=6	=6	=6	=6	=6	=6
4BB	6	2g	[1Gni	4BB	2gni	4d	(4BB	2.B	(4d	2g
2E	.	.	.	2E	.	2.B	2E)	.	4e)	.
.	.	2g	.	.	2g	.	.	.	[2g	2g
4D	2	.	.	4D	.	.	4D	4e	.	.
=7	=7	=7	=7	=7	=7	=7	=7	=7	=7	=7
2C	6 5	(4a	2G]	2C	4a	2e	2C	2e	2g]	(4a
.	.	4b)	.	.	4b	.	.	.	.	4b)
*	*	*	*	*	*	*^	*	*	*	*
2D	.	(4cc	2F#	2D	4cc	2a	2d\	2D	2d	2f#	(4cc
.	.	4dd)	.	.	4dd	.	.	.	.	.	4dd)
=8	=8	=8	=8	=8	=8	=8	=8	=8	=8	=8	=8
1GG	.	1b	1G	1GG	1b	1g	1d\	1GG	1d	1g	1b
=9:|!	=9:|!	=9:|!	=9:|!	=9:|!	=9:|!	=9:|!	=9:|!	=9:|!	=9:|!	=9:|!	=9:|!
2G	.	2b	2d	2G	2b	2g	1r	2G	2d	2g	2b
2G	6	(4a	2B	2G	4a	[2e	.	2G	2B	[2e	(4a
.	.	4g)	.	.	4g	.	.	.	.	.	4g)
=10	=10	=10	=10	=10	=10	=10	=10	=10	=10	=10	=10
2F#	7	2a	2A	2F#	2a	2e]	1r	2F#	2A	2e]	2a
2B	.	2dd	2B	2B	2dd	2d	.	2B	2B	2d	2dd
=11	=11	=11	=11	=11	=11	=11	=11	=11	=11	=11	=11
2G	6 5	2dd	2B	2G	2dd	1e	1r	2G	2B	2e	2dd
2A	#	2cc#X	2A	2A	2cc#X	.	.	2A	2A	2e	2cc#X
=12	=12	=12	=12	=12	=12	=12	=12	=12	=12	=12	=12
1D	.	1dd	1A	1D	1dd	1f#	1r	1D	1A	1f#	1dd
=13	=13	=13	=13	=13	=13	=13	=13	=13	=13	=13	=13
2C	.	2ee	2c	2C	2ee	2g	1r	2C	2c	2g	2ee
2D	.	(4dd	2A	2D	4dd	2f#	.	2D	2A	2f#	(4dd
.	.	4cc)	.	.	4cc	.	.	.	.	.	4cc)
=14	=14	=14	=14	=14	=14	=14	=14	=14	=14	=14	=14
2E	.	(4b	2G	2E	4b	2g	1r	2E	2G	2g	(4b
.	.	4cc)	.	.	4cc	.	.	.	.	.	4cc)
2BB	6	2dd	[2G	2BB	2dd	2g	.	2BB	2d	[2g	2dd
=15	=15	=15	=15	=15	=15	=15	=15	=15	=15	=15	=15
2C	6 5	2a	2G]	2C	2a	2e	1r	2C	2e	2g]	2a
2D	.	2a	2F#	2D	2a	2d	.	2D	(4d	2f#	2a
.	.	.	.	.	.	.	.	.	4c)	.	.
=16	=16	=16	=16	=16	=16	=16	=16	=16	=16	=16	=16
1GG	.	1g	1G	1GG	1g	1d	1B\	1GG	1B	1g	1g
*	*	*	*v	*v	*	*	*	*	*	*	*
*	*	*	*	*v	*v	*v	*	*	*	*
==	==	==	==	==	==	==	==	==
*-	*-	*-	*-	*-	*-	*-	*-	*-
!!!system-decoration: {(s1,s2,s3,s4)}{(s5,s6)}{(s7,s8)}
!!!RDF**kern: i = editorial accidental, paren
!!!RDF**kern: > = above
!!!RDF**kern: < = below
!!!AGN: chorale
!!!EED: Derek Remeš
!!!EED2: Victor Phan
!!!END: 2023/11/28
!!!ENC: Wolfgang Drescher
!!!EEV: 2023/12/12
!!!title: @{ONM}. @{OTL}
!!!verovio: mnumInterval 1